icons/printer-cloud-line.svg

<svg viewBox="0 0 24 24" fill="currentColor" xmlns="http://www.w3.org/2000/svg"><path d="M17 2C17.5523 2 18 2.44771 18 3V7H21C21.5523 7 22 7.44772 22 8V13.3243C21.8205 13.0765 21.6169 12.8387 21.3891 12.6109C20.9614 12.1832 20.4983 11.8406 20 11.5832V9H4V17H6V16C6 15.4477 6.44772 15 7 15H12.1938C12.1683 15.0933 12.1454 15.1877 12.1249 15.283C11.6949 15.5675 11.314 15.9255 10.9824 16.357C10.8228 16.5647 10.6827 16.779 10.562 17H8V20H10.0541C10.1628 20.7319 10.4352 21.3985 10.8715 22H7C6.44772 22 6 21.5523 6 21V19H3C2.44771 19 2 18.5523 2 18V8C2 7.44772 2.44771 7 3 7H6V3C6 2.44771 6.44772 2 7 2H17ZM16 4H8V7H16V4ZM8 10V12H5V10H8ZM21 16.5C21 14.567 19.433 13 17.5 13C15.567 13 14 14.567 14 16.5L14.0034 16.6025C12.8474 16.9279 12 17.99 12 19.25C12 20.7125 13.1417 21.9084 14.5825 21.995L14.75 22H20.25L20.4175 21.995C21.8583 21.9084 23 20.7125 23 19.25C23 17.9903 22.1531 16.9285 20.9985 16.6033L21 16.5ZM16.0069 16.3555C16.0796 15.5949 16.7203 15 17.5 15C18.2797 15 18.9204 15.5949 18.9931 16.3555L19 16.5V18.12C19.696 18.3189 20.1774 18.4541 20.4441 18.5256C20.8442 18.6328 21.0816 19.044 20.9744 19.4441C20.8851 19.7775 20.5846 19.998 20.2554 20.0002H14.7446C14.4154 19.998 14.1149 19.7775 14.0256 19.4441C13.9183 19.044 14.1558 18.6328 14.5559 18.5256C14.793 18.462 15.1997 18.3482 15.7759 18.1839L16 18.12V16.5L16.0069 16.3555Z"/></svg>

<svg xmlns="http://www.w3.org/2000/svg" viewBox="0 0 24 24">
    <g>
        <path fill="none" d="M0 0h24v24H0z"/>
        <path d="M17 2a1 1 0 0 1 1 1v4h3a1 1 0 0 1 1 1l.001 5.346a5.516 5.516 0 0 0-2-1.745L20 9H4v8h2v-1a1 1 0 0 1 1-1h5.207l-.071.283-.03.02A4.763 4.763 0 0 0 10.567 17L8 17v3h2.06a4.73 4.73 0 0 0 .817 2H7a1 1 0 0 1-1-1v-2H3a1 1 0 0 1-1-1V8a1 1 0 0 1 1-1h3V3a1 1 0 0 1 1-1h10zm.5 11a3.5 3.5 0 0 1 3.5 3.5l-.001.103a2.75 2.75 0 0 1-.581 5.392L20.25 22h-5.5l-.168-.005a2.75 2.75 0 0 1-.579-5.392L14 16.5a3.5 3.5 0 0 1 3.5-3.5zm0 2a1.5 1.5 0 0 0-1.473 1.215l-.02.14L16 16.5v1.62l-1.444.406a.75.75 0 0 0 .08 1.466l.109.008h5.51a.75.75 0 0 0 .19-1.474l-1.013-.283L19 18.12V16.5l-.007-.144A1.5 1.5 0 0 0 17.5 15zM8 10v2H5v-2h3zm8-6H8v3h8V4z"/>
    </g>
</svg>
